Arsenal/img/howWeWorkIcon5.svg

<svg width="40" height="40" viewBox="0 0 40 40" fill="none" xmlns="http://www.w3.org/2000/svg">
<path d="M37.2656 14.1406H30.625V19.6094H40V16.875C40 15.3673 38.7734 14.1406 37.2656 14.1406Z" fill="#DE6518"/>
<path d="M30.625 23.125C30.625 25.9251 28.347 28.2031 25.5469 28.2031H11.7188V30.1562C11.7188 31.664 12.9454 32.8906 14.4531 32.8906H37.2656C38.7734 32.8906 40 31.664 40 30.1562V21.9531H30.625V23.125Z" fill="#DE6518"/>
<path d="M28.2812 23.125V9.84375C28.2812 8.33602 27.0546 7.10938 25.5469 7.10938H2.73438C1.22664 7.10938 0 8.33602 0 9.84375V23.125C0 24.6327 1.22664 25.8594 2.73438 25.8594H25.5469C27.0546 25.8594 28.2812 24.6327 28.2812 23.125ZM7.65625 21.1719H4.6875V18.8281H7.65625V21.1719ZM12.9688 21.1719H10V18.8281H12.9688V21.1719ZM18.2812 21.1719H15.3125V18.8281H18.2812V21.1719ZM23.5938 21.1719H20.625V18.8281H23.5938V21.1719ZM23.5938 14.1406H16.4062V11.7969H23.5938V14.1406Z" fill="#DE6518"/>
</svg>

<svg width="40" height="40" fill="none" xmlns="http://www.w3.org/2000/svg"><path d="M37.266 14.14h-6.641v5.47H40v-2.735a2.738 2.738 0 00-2.734-2.734zm-6.641 8.985c0 2.8-2.278 5.078-5.078 5.078H11.719v1.953a2.737 2.737 0 002.734 2.735h22.813A2.737 2.737 0 0040 30.156v-8.203h-9.375v1.172z" fill="#DE6518"/><path d="M28.281 23.125V9.844a2.737 2.737 0 00-2.734-2.735H2.734A2.737 2.737 0 000 9.844v13.281a2.738 2.738 0 002.734 2.734h22.813a2.737 2.737 0 002.734-2.734zM7.656 21.172H4.688v-2.344h2.968v2.344zm5.313 0H10v-2.344h2.969v2.344zm5.312 0h-2.968v-2.344h2.968v2.344zm5.313 0h-2.969v-2.344h2.969v2.344zm0-7.031h-7.188v-2.344h7.188v2.344z" fill="#DE6518"/></svg>
